storage/app/icons/phosphoricons/thin/nuclear-plant-thin.svg

<svg xmlns="http://www.w3.org/2000/svg" fill="currentColor" viewBox="0 0 256 256"><path d="M152 36h24a12 12 0 0 0 12-12 4 4 0 0 1 8 0 20 20 0 0 1-20 20h-24a12 12 0 0 0-12 12 4 4 0 0 1-8 0 20 20 0 0 1 20-20m-48 24a4 4 0 0 0 4-4 44.05 44.05 0 0 1 44-44h8a4 4 0 0 0 0-8h-8a52.06 52.06 0 0 0-52 52 4 4 0 0 0 4 4m140 156a4 4 0 0 1-4 4H16a4 4 0 0 1 0-8h19.21c14.21-28.21 30.94-70.65 32.65-116.51A11.93 11.93 0 0 1 79.85 84h88.33a12 12 0 0 1 12 11.46c2.21 50.34 25.71 97 37 116.54H240a4 4 0 0 1 4 4m-72.15-4c-14.14-28.88-30-70.85-31.7-116.21a4 4 0 0 0-4-3.79h-56.3a4 4 0 0 0-4 3.79c-1.69 45.36-17.56 87.33-31.7 116.21Zm36.09 0c-12.17-22-33.62-67.3-35.77-116.19a4 4 0 0 0-4-3.81h-20.68a11.9 11.9 0 0 1 .65 3.49c1.71 45.86 18.44 88.3 32.65 116.51Z"/></svg>

<svg xmlns="http://www.w3.org/2000/svg" viewBox="0 0 256 256" fill="currentColor"><path d="M152,36h24a12,12,0,0,0,12-12,4,4,0,0,1,8,0,20,20,0,0,1-20,20H152a12,12,0,0,0-12,12,4,4,0,0,1-8,0A20,20,0,0,1,152,36ZM104,60a4,4,0,0,0,4-4,44.05,44.05,0,0,1,44-44h8a4,4,0,0,0,0-8h-8a52.06,52.06,0,0,0-52,52A4,4,0,0,0,104,60ZM244,216a4,4,0,0,1-4,4H16a4,4,0,0,1,0-8H35.21c14.21-28.21,30.94-70.65,32.65-116.51A11.93,11.93,0,0,1,79.85,84h88.33a12,12,0,0,1,12,11.46c2.21,50.34,25.71,97,37,116.54H240A4,4,0,0,1,244,216Zm-72.15-4c-14.14-28.88-30-70.85-31.7-116.21a4,4,0,0,0-4-3.79H79.85a4,4,0,0,0-4,3.79C74.16,141.15,58.29,183.12,44.15,212Zm36.09,0c-12.17-22-33.62-67.3-35.77-116.19a4,4,0,0,0-4-3.81H147.49a11.86,11.86,0,0,1,.65,3.49c1.71,45.86,18.44,88.3,32.65,116.51Z"/></svg>
